web-client/src/images/paperclip-no-icon.svg

<svg fill="none" height="57" viewBox="0 0 64 57" width="64" xmlns="http://www.w3.org/2000/svg"><g fill="#fff" stroke="#fff"><path d="m26.6062 32.8931-.0002.0002c-.6517.6666-.7183 1.7911-.0695 2.479h.0001c.6205.6578 1.6193.6709 2.253.0227.0001-.0001.0002-.0001.0003-.0002l17.8561-18.2469.0001-.0002c2.1054-2.1535 2.1053-5.6537-.001-7.80823l-.3281.32068.328-.32069c-2.0699-2.11723-5.3974-2.11837-7.4683.00002l-20.4845 20.95312.3576.3495-.3576-.3495c-3.5795 3.6616-3.6418 9.5919-.1178 13.228 3.5174 3.6294 9.21 3.6339 12.7339.0295l-.3575-.3495.3576.3495 16.8027-17.1874-.3576-.3495.3576.3495c.4101-.4196 1.0828-.4272 1.5025-.017l2.2341 2.184.3103-.3174-.3103.3174c.4196.4102.4272 1.0829.017 1.5025l.3575.3495-.3575-.3495-16.8028 17.1873c-5.62 5.7486-14.7069 5.6811-20.257-.0458l-.359.348.359-.348c-5.51383-5.6893-5.41554-14.8743.1338-20.5506l20.4844-20.95321-.3293-.32194.3293.32193c4.1316-4.22632 10.8435-4.22669 14.9754 0l.3203-.31313-.3203.31314c4.0963 4.18996 4.1012 10.95311.0002 15.14801 0 0-.0001.0001-.0001.0002l-17.8562 18.247-.0002.0002c-2.7168 2.7789-7.1526 2.7404-9.8239-.091l-.2813.2654.2813-.2654c-2.573-2.7274-2.4954-7.0607.1357-9.752l14.0371-14.3391c.4106-.4193 1.0833-.4264 1.5025-.016l.3106-.3172-.3106.3172 2.2325 2.1854c.4194.4106.4265 1.0833.0161 1.5025z"/><path d="m7.95311 3.59083-1.13183-.98436-.98436 1.13183-1.96872 2.26366-.98436 1.13183 1.13183.98435 51.95763 45.18786 1.1318.9843.9844-1.1318 1.9687-2.2637.9843-1.1318-1.1318-.9843z" stroke-width="3"/></g></svg>

<svg width="64" height="57" viewBox="0 0 64 57" fill="none" xmlns="http://www.w3.org/2000/svg">
<path d="M26.6062 32.8931L26.606 32.8933C25.9543 33.5599 25.8877 34.6844 26.5365 35.3723L26.5366 35.3723C27.1571 36.0301 28.1559 36.0432 28.7896 35.395C28.7897 35.3949 28.7898 35.3949 28.7899 35.3948L46.646 17.1479L46.6461 17.1477C48.7515 14.9942 48.7514 11.494 46.6451 9.33947L46.317 9.66015L46.645 9.33946C44.5751 7.22223 41.2476 7.22109 39.1767 9.33948L18.6922 30.2926L19.0498 30.6421L18.6922 30.2926C15.1127 33.9542 15.0504 39.8845 18.5744 43.5206C22.0918 47.15 27.7844 47.1545 31.3083 43.5501L30.9508 43.2006L31.3084 43.5501L48.1111 26.3627L47.7535 26.0132L48.1111 26.3627C48.5212 25.9431 49.1939 25.9355 49.6136 26.3457L51.8477 28.5297L52.158 28.2123L51.8477 28.5297C52.2673 28.9399 52.2749 29.6126 51.8647 30.0322L52.2222 30.3817L51.8647 30.0322L35.0619 47.2195C29.4419 52.9681 20.355 52.9006 14.8049 47.1737L14.4459 47.5217L14.8049 47.1737C9.29107 41.4844 9.38936 32.2994 14.9387 26.6231L35.4231 5.66989L35.0938 5.34795L35.4231 5.66988C39.5547 1.44356 46.2666 1.44319 50.3985 5.66988L50.7188 5.35675L50.3985 5.66989C54.4948 9.85985 54.4997 16.623 50.3987 20.8179C50.3987 20.8179 50.3986 20.818 50.3986 20.8181L32.5424 39.0651L32.5422 39.0653C29.8254 41.8442 25.3896 41.8057 22.7183 38.9743L22.437 39.2397L22.7183 38.9743C20.1453 36.2469 20.2229 31.9136 22.854 29.2223L36.8911 14.8832C37.3017 14.4639 37.9744 14.4568 38.3936 14.8672L38.7042 14.55L38.3936 14.8672L40.6261 17.0526C41.0455 17.4632 41.0526 18.1359 40.6422 18.5551L26.6062 32.8931Z" fill="#FFFFFF" stroke="white"/>
<path d="M7.95311 3.59083L6.82128 2.60647L5.83692 3.7383L3.8682 6.00196L2.88384 7.13379L4.01567 8.11814L55.9733 53.306L57.1051 54.2903L58.0895 53.1585L60.0582 50.8948L61.0425 49.763L59.9107 48.7787L7.95311 3.59083Z" fill="#FFFFFF" stroke="white" stroke-width="3"/>
</svg>
